lib/preview/nrk-logo-preview-nrk-tegnspraak-symbol-with-bg.svg

<svg width="65" height="24" viewBox="0 0 65 24" fill="none" xmlns="http://www.w3.org/2000/svg">
<rect width="65" height="24" fill="#1767CE"/>
<path d="M6.00439 17.9999V6.00103H9.94159V17.9999H6.00439ZM15.2982 7.91072L17.5625 17.9999H13.2536L10.5499 6.00103H12.9666C13.5207 5.99384 14.0585 6.18919 14.4789 6.55033C14.9 6.89632 15.1893 7.37664 15.2982 7.91072ZM18.1539 17.9999V6.00103H22.0911V17.9999H18.1539ZM25.0649 10.564C24.6406 10.5682 24.2231 10.4572 23.8569 10.2429C23.4956 10.0341 23.1955 9.7339 22.9867 9.37254C22.7722 9.00627 22.6611 8.5887 22.6654 8.16426C22.6605 7.7424 22.7716 7.32732 22.9867 6.96437C23.1977 6.60693 23.4975 6.31003 23.8569 6.10246C24.2232 5.88844 24.6406 5.77745 25.0649 5.78132C25.4866 5.77678 25.9015 5.88787 26.2646 6.10246C26.6204 6.31185 26.917 6.6085 27.1264 6.96437C27.3412 7.32742 27.4523 7.74243 27.4477 8.16426C27.4517 8.58867 27.3407 9.00617 27.1264 9.37254C26.9193 9.73231 26.6223 10.0322 26.2646 10.2429C25.9015 10.4579 25.4863 10.569 25.0643 10.564H25.0649ZM28.056 17.9999V6.00103H31.9936V17.9999H28.056ZM36.9781 12.5582C36.9892 12.5698 37.0737 12.7078 37.2316 12.9722C37.3895 13.2366 37.595 13.5746 37.8483 13.9862C38.1018 14.3976 38.3693 14.8342 38.6507 15.2959C38.9322 15.7577 39.197 16.1943 39.4452 16.6057C39.6925 17.0171 39.9741 17.4819 40.2901 17.9999H35.9642C35.6937 17.5605 35.4485 17.1634 35.2289 16.8085C35.0092 16.4536 34.7757 16.0705 34.5282 15.6593C34.2802 15.2484 34.035 14.8485 33.7926 14.4594C33.5502 14.0703 33.3419 13.7296 33.1677 13.437C32.9927 13.1443 32.8715 12.9471 32.8041 12.8455C32.6369 12.5934 32.538 12.3022 32.5171 12.0005C32.5338 11.7109 32.627 11.4309 32.7872 11.189C32.8547 11.0764 32.9787 10.8764 33.1589 10.5891C33.3392 10.3018 33.5504 9.96099 33.7926 9.56666C34.0348 9.17233 34.28 8.76954 34.5282 8.35831C34.7764 7.94708 35.0099 7.56117 35.2289 7.20064C35.4489 6.84049 35.6941 6.44053 35.9642 6.00075H40.2901L36.944 11.4594C36.8405 11.6215 36.7821 11.8083 36.775 12.0005C36.7862 12.2023 36.8566 12.3963 36.9775 12.5582H36.9781Z" fill="white"/>
<path fill-rule="evenodd" clip-rule="evenodd" d="M57.6122 18.4649C59.3268 16.7503 60.2901 14.4248 60.2901 12C60.2901 9.57514 59.3268 7.24962 57.6122 5.535C55.8976 3.82038 53.5721 2.85712 51.1473 2.85712C48.7224 2.85712 46.3969 3.82038 44.6823 5.535C42.9677 7.24962 42.0044 9.57514 42.0044 12C42.0044 14.4248 42.9677 16.7503 44.6823 18.4649C46.3969 20.1796 48.7224 21.1428 51.1473 21.1428C53.5721 21.1428 55.8976 20.1796 57.6122 18.4649ZM54.5155 7.96636L51.5844 9.5535L51.5855 9.55149C51.5444 9.57392 51.5138 9.6117 51.5003 9.65659C51.4869 9.70149 51.4917 9.74987 51.5138 9.79121L51.5252 9.81207C51.5476 9.85327 51.5854 9.88393 51.6303 9.89732C51.6753 9.9107 51.7237 9.90574 51.7649 9.8835L53.8489 8.75721C53.9477 8.70046 54.0648 8.68506 54.1749 8.71433C54.2849 8.74361 54.3789 8.81519 54.4364 8.91349C54.4872 9.01541 54.4956 9.13328 54.4599 9.24139C54.4241 9.3495 54.3471 9.4391 54.2455 9.49064L52.1832 10.6058C52.1367 10.6289 52.1013 10.6695 52.0846 10.7187C52.0679 10.7679 52.0713 10.8217 52.0941 10.8684C52.1207 10.913 52.1639 10.9454 52.2142 10.9584C52.2646 10.9714 52.318 10.964 52.3629 10.9378L52.9278 10.6321L52.9792 10.6035L53.9089 10.1006C54.0077 10.0439 54.1248 10.0284 54.2349 10.0576C54.345 10.0868 54.4391 10.1584 54.4967 10.2566C54.5475 10.3586 54.5559 10.4765 54.5202 10.5847C54.4844 10.6928 54.4074 10.7825 54.3058 10.8341L52.9178 11.5846L52.6947 11.7035C52.6434 11.5648 52.5451 11.4485 52.4168 11.3749C52.2886 11.3013 52.1385 11.2752 51.9929 11.3009L49.4652 11.7832C49.3917 11.8008 49.3206 11.8274 49.2535 11.8624C49.0661 11.6935 48.9093 11.4935 48.7901 11.2712C48.6199 10.9568 48.5282 10.6059 48.5227 10.2484C48.5171 9.89088 48.598 9.53733 48.7584 9.21778C48.7601 9.21492 48.7601 9.21206 48.7601 9.20921L49.8195 6.84835C49.8635 6.74329 49.9472 6.6599 50.0525 6.61638C50.1577 6.57286 50.2759 6.57275 50.3812 6.61607C50.4837 6.66627 50.5621 6.75488 50.5996 6.86264C50.637 6.97039 50.6304 7.08858 50.5812 7.1915L50.2384 7.95492L50.7927 7.65521C50.7968 7.65294 50.8009 7.65154 50.8051 7.65015C50.8098 7.64855 50.8145 7.64696 50.8192 7.64406C50.823 7.64172 50.8266 7.63912 50.8301 7.63652C50.8348 7.6331 50.8395 7.62968 50.8447 7.62692L53.0887 6.41321C53.1874 6.35639 53.3045 6.34093 53.4146 6.37022C53.5247 6.3995 53.6187 6.47114 53.6761 6.5695C53.7269 6.67141 53.7353 6.78927 53.6996 6.89739C53.6638 7.0055 53.5868 7.09509 53.4852 7.14664L51.0078 8.48635C50.9666 8.50883 50.9359 8.54673 50.9225 8.59176C50.9091 8.63678 50.9141 8.68527 50.9364 8.72664L50.9472 8.74721C50.9697 8.78846 51.0076 8.81912 51.0526 8.83251C51.0977 8.84589 51.1462 8.84091 51.1875 8.81864L54.1189 7.23321C54.2176 7.17644 54.3348 7.16098 54.4448 7.19021C54.5548 7.21943 54.6489 7.29096 54.7064 7.38921C54.7572 7.49112 54.7656 7.60899 54.7299 7.7171C54.6941 7.82522 54.6171 7.91481 54.5155 7.96636ZM51.1527 13.8912L54.1401 15.3586C54.2434 15.4061 54.3241 15.4924 54.3639 15.5989C54.4038 15.7054 54.4 15.8233 54.3532 15.9269C54.2997 16.0272 54.2086 16.1023 54.0999 16.1358C53.9912 16.1693 53.8737 16.1585 53.7729 16.1058L50.7867 14.6384C50.7446 14.6178 50.6961 14.6147 50.6517 14.6298C50.6074 14.6449 50.5709 14.6769 50.5501 14.7189L50.5395 14.7401C50.519 14.7822 50.5161 14.8307 50.5312 14.875C50.5463 14.9193 50.5784 14.9559 50.6204 14.9766L52.7452 16.0206C52.8486 16.0681 52.9289 16.1546 52.9688 16.2611C53.0087 16.3676 53.0048 16.4855 52.9581 16.5892C52.9045 16.6895 52.8135 16.7645 52.7049 16.7979C52.5962 16.8314 52.4788 16.8205 52.3781 16.7678L50.2764 15.7355C50.2306 15.711 50.177 15.7056 50.1273 15.7205C50.0776 15.7354 50.0357 15.7693 50.0109 15.8149C49.99 15.8625 49.9887 15.9163 50.0073 15.9648C50.026 16.0133 50.063 16.0525 50.1104 16.0738L51.6855 16.8478C51.7888 16.8953 51.8691 16.9817 51.909 17.0881C51.9488 17.1945 51.945 17.3124 51.8984 17.4161C51.8449 17.5164 51.7539 17.5915 51.6452 17.625C51.5366 17.6585 51.4191 17.6477 51.3184 17.5949L49.9044 16.9001C49.9044 16.9001 48.6221 16.2592 48.5901 16.2306C48.1224 15.9386 47.7797 15.4833 47.6283 14.9531C47.477 14.4228 47.5278 13.8553 47.7709 13.3604C47.9283 13.0399 48.1607 12.7622 48.4483 12.5508C48.736 12.3394 49.0704 12.2005 49.4232 12.1461C49.4247 12.1458 49.4259 12.1451 49.427 12.1443C49.4284 12.1435 49.4298 12.1426 49.4315 12.1426L51.9655 11.6384C52.0205 11.6257 52.0774 11.624 52.133 11.6333C52.1886 11.6427 52.2418 11.6629 52.2896 11.6929C52.3374 11.7228 52.3788 11.7619 52.4114 11.8079C52.4441 11.8539 52.4673 11.9059 52.4798 11.9609C52.4982 12.0733 52.4715 12.1883 52.4054 12.2811C52.3394 12.3738 52.2394 12.4367 52.1272 12.4561L51.3078 12.6192L51.8727 12.8966C51.8765 12.8985 51.8798 12.9009 51.8831 12.9034C51.8873 12.9064 51.8915 12.9096 51.8969 12.9118C51.901 12.9134 51.9049 12.9148 51.9089 12.9162C51.9145 12.9181 51.92 12.92 51.9255 12.9226L54.2112 14.0461C54.3145 14.0936 54.3948 14.1799 54.4347 14.2864C54.4745 14.3928 54.4707 14.5107 54.4241 14.6143C54.3705 14.7146 54.2794 14.7897 54.1707 14.8231C54.062 14.8565 53.9445 14.8457 53.8438 14.7929L51.3192 13.5526C51.2771 13.5321 51.2285 13.529 51.1841 13.5442C51.1397 13.5593 51.1032 13.5914 51.0824 13.6335L51.0721 13.6546C51.0516 13.6967 51.0486 13.7452 51.0637 13.7895C51.0787 13.8338 51.1107 13.8704 51.1527 13.8912Z" fill="#D4EEFC"/>
</svg>

<svg xmlns="http://www.w3.org/2000/svg" viewBox="0 0 65 24"><path fill="#1767CE" d="M0 0h65v24H0z"/><path fill="#fff" d="M6.004 18V6h3.938V18H6.004Zm9.294-10.09L17.562 18h-4.308L10.55 6h2.417a2.276 2.276 0 0 1 1.512.55c.421.345.71.826.82 1.36ZM18.154 18V6h3.937V18h-3.937Zm6.91-7.436a2.381 2.381 0 0 1-2.078-1.191 2.344 2.344 0 0 1-.32-1.209 2.301 2.301 0 0 1 .32-1.2 2.41 2.41 0 0 1 3.279-.862c.355.21.652.506.861.862.215.363.326.778.322 1.2a2.35 2.35 0 0 1-.322 1.209 2.4 2.4 0 0 1-.861.87 2.302 2.302 0 0 1-1.2.321ZM28.057 18V6h3.938V18h-3.938Zm8.922-5.442c.011.012.096.15.254.414.157.265.363.603.616 1.014a315.936 315.936 0 0 1 1.597 2.62L40.29 18h-4.326c-.27-.44-.515-.837-.735-1.192-.22-.354-.453-.738-.7-1.149-.249-.41-.494-.81-.736-1.2-.243-.389-.451-.73-.625-1.022a18.04 18.04 0 0 0-.364-.591 1.747 1.747 0 0 1-.287-.845c.017-.29.11-.57.27-.812.068-.113.192-.313.372-.6s.391-.628.634-1.022c.242-.395.487-.797.735-1.209l.7-1.157.736-1.2h4.326l-3.346 5.458a1.08 1.08 0 0 0-.169.542c.011.201.082.395.203.557Z"/><path fill="#D4EEFC" fill-rule="evenodd" d="M57.612 18.465a9.143 9.143 0 1 0-12.93-12.93 9.143 9.143 0 0 0 12.93 12.93ZM54.516 7.966l-2.932 1.587.002-.002a.178.178 0 0 0-.072.24l.011.021a.177.177 0 0 0 .24.072l2.084-1.127a.432.432 0 0 1 .587.156.432.432 0 0 1-.19.578l-2.063 1.115a.196.196 0 0 0-.089.262.197.197 0 0 0 .269.07l.565-.306.051-.028.93-.503a.432.432 0 0 1 .588.156.432.432 0 0 1-.191.577l-1.388.75-.223.12a.631.631 0 0 0-.702-.403l-2.528.482a.922.922 0 0 0-.212.08 2.22 2.22 0 0 1-.495-2.645c.002-.003.002-.006.002-.009l1.06-2.36a.431.431 0 0 1 .561-.233.433.433 0 0 1 .2.575l-.343.764.555-.3a.07.07 0 0 1 .012-.005c.005-.001.01-.003.014-.006a.152.152 0 0 0 .011-.007l.015-.01 2.244-1.214a.431.431 0 0 1 .587.156.432.432 0 0 1-.19.578l-2.478 1.34a.178.178 0 0 0-.072.24l.011.02a.178.178 0 0 0 .24.072l2.932-1.586a.432.432 0 0 1 .587.156.432.432 0 0 1-.19.577Zm-3.363 5.925 2.987 1.468a.43.43 0 0 1 .213.568.43.43 0 0 1-.58.179l-2.986-1.468a.177.177 0 0 0-.237.08l-.01.022a.177.177 0 0 0 .08.237l2.125 1.044a.431.431 0 0 1 .213.568.43.43 0 0 1-.58.179l-2.102-1.033a.196.196 0 0 0-.265.08.197.197 0 0 0 .1.259l1.575.774a.431.431 0 0 1 .212.568.43.43 0 0 1-.58.179l-1.414-.695s-1.282-.64-1.314-.67a2.227 2.227 0 0 1-.142-3.68 2.217 2.217 0 0 1 .979-.406l.005-.001 2.533-.505a.43.43 0 0 1 .515.323.432.432 0 0 1-.353.495l-.82.163.566.278a.066.066 0 0 1 .01.006c.004.003.008.007.014.009a.355.355 0 0 0 .029.01l2.285 1.124a.43.43 0 0 1 .213.568.43.43 0 0 1-.58.179l-2.525-1.24a.177.177 0 0 0-.237.08l-.01.022a.177.177 0 0 0 .08.236Z" clip-rule="evenodd"/></svg>
